T: Larry O'Gaff's
M: 6/8
L: 1/8
K: Gmaj
g2G BAG|ded dBG|cec BdB|Abc def|g2G BAG|ded dBG|cec BdB|AGA G3:|d2g {a}gfg|{a}gfg afd|d2a (b)aga|(b)aga b2a|gba gfe|dge dBG|cec BdB|AGA G3:||
